icons/brightness.svg

<svg width="24" height="24" viewBox="0 0 24 24" fill="none" xmlns="http://www.w3.org/2000/svg">
<path fill-rule="evenodd" clip-rule="evenodd" d="M11 4.06189C7.05369 4.55399 4 7.92038 4 12C4 16.0796 7.05369 19.446 11 19.9381V4.06189ZM13 4.0618V6.58579L15.0032 4.58254C14.3719 4.32662 13.7002 4.149 13 4.0618ZM16.8085 5.60573L13 9.41421V11.8858L18.0825 6.80328C17.7029 6.35941 17.2755 5.95756 16.8085 5.60573ZM19.202 8.51224L13 14.7142V17.1858L19.8309 10.3549C19.6959 9.70868 19.4829 9.09107 19.202 8.51224ZM13.0875 19.9267L19.9267 13.0875C19.4444 16.6358 16.6358 19.4445 13.0875 19.9267ZM2 12C2 6.47715 6.47715 2 12 2C13.9056 2 15.6896 2.53401 17.207 3.46106C18.405 4.19301 19.4365 5.16969 20.2325 6.32178C21.0863 7.5575 21.6696 8.99592 21.8955 10.5502C21.9644 11.0241 22 11.5082 22 12C22 17.5228 17.5228 22 12 22C6.47715 22 2 17.5228 2 12Z" fill="black"/>
</svg>

<svg
  width="24"
  height="24"
  viewBox="0 0 24 24"
  xmlns="http://www.w3.org/2000/svg"
>
  <path
    fill-rule="evenodd"
    clip-rule="evenodd"
    d="M11 4.062a8.001 8.001 0 0 0 0 15.876V4.062zm2 0v2.524l2.003-2.003A7.939 7.939 0 0 0 13 4.062zm3.808 1.544L13 9.414v2.472l5.082-5.083a8.053 8.053 0 0 0-1.274-1.197zm2.394 2.906L13 14.714v2.472l6.83-6.831a7.935 7.935 0 0 0-.628-1.843zm-6.115 11.415l6.84-6.84a8.005 8.005 0 0 1-6.84 6.84zM2 12C2 6.477 6.477 2 12 2c1.906 0 3.69.534 5.207 1.461a10.048 10.048 0 0 1 3.026 2.86A9.948 9.948 0 0 1 22 12c0 5.523-4.477 10-10 10S2 17.523 2 12z"
  />
</svg>
